X:7609
T:Tommy Bhetty's Waltz
O:england
M:3/4
L:1/8
Q:1/4=170
S:Altan
K:G
D2|:G3 B dB|G3 B dB|d2 b3 a|ga fg ef|G3 B dB|G3 B dB|
D2 F2 A2|c2 B2 A2|G3 B dB|G3 B dB|d2 b3 a|ga fg ef|
dg g2 Bc|d3 c AF|G2 B2 BA|[1G3 z D2:|[2 G3 g fg||
a2 f2 d2|A2 F2 D2|C2 b3 a|ga fg ef|d3 e d2|B2 A2 B2|
D2 F2 A2|c2 B2 A2|d2 Bc dB|db b2 af|g2 b3 a|ga fg ef|
dg g2 Bc|d3 c AF|G2 B2 BA|[1G3 g fg:|[2 G3|


